humanity-icon-theme/Humanity/places/48/user-desktop.svg

<?xml version="1.0" encoding="UTF-8" standalone="no"?>
<!-- Created with Inkscape (http://www.inkscape.org/) -->
<svg
   xmlns:svg="http://www.w3.org/2000/svg"
   xmlns="http://www.w3.org/2000/svg"
   xmlns:xlink="http://www.w3.org/1999/xlink"
   version="1.0"
   width="48"
   height="48"
   id="svg4158">
  <defs
     id="defs4160">
    <linearGradient
       id="linearGradient5048-7">
      <stop
         id="stop5050-5"
         style="stop-color:#000000;stop-opacity:0"
         offset="0" />
      <stop
         id="stop5056-9"
         style="stop-color:#000000;stop-opacity:1"
         offset="0.5" />
      <stop
         id="stop5052-6"
         style="stop-color:#000000;stop-opacity:0"
         offset="1" />
    </linearGradient>
    <linearGradient
       x1="302.85715"
       y1="366.64789"
       x2="302.85715"
       y2="609.50507"
       id="linearGradient2788"
       xlink:href="#linearGradient5048-7"
       gradientUnits="userSpaceOnUse"
       gradientTransform="matrix(6.553443e-2,0,0,2.470588e-2,0.3139865,31.941639)" />
    <radialGradient
       cx="605.71429"
       cy="486.64789"
       r="117.14286"
       fx="605.71429"
       fy="486.64789"
       id="radialGradient2785"
       xlink:href="#linearGradient5060-6"
       gradientUnits="userSpaceOnUse"
       gradientTransform="matrix(6.553443e-2,0,0,2.470588e-2,0.3268837,31.941639)" />
    <linearGradient
       id="linearGradient5060-6">
      <stop
         id="stop5062-3"
         style="stop-color:#000000;stop-opacity:1"
         offset="0" />
      <stop
         id="stop5064-1"
         style="stop-color:#000000;stop-opacity:0"
         offset="1" />
    </linearGradient>
    <radialGradient
       cx="605.71429"
       cy="486.64789"
       r="117.14286"
       fx="605.71429"
       fy="486.64789"
       id="radialGradient2782"
       xlink:href="#linearGradient5060-6"
       gradientUnits="userSpaceOnUse"
       gradientTransform="matrix(-6.553443e-2,0,0,2.470588e-2,47.673126,31.941639)" />
    <linearGradient
       id="linearGradient3332-412-419-652-471">
      <stop
         id="stop2759"
         style="stop-color:#650d5c;stop-opacity:1"
         offset="0" />
      <stop
         id="stop2761"
         style="stop-color:#ad53a5;stop-opacity:1"
         offset="1" />
    </linearGradient>
    <linearGradient
       x1="10.014208"
       y1="44.960102"
       x2="10.014208"
       y2="2.8764627"
       id="linearGradient2857"
       xlink:href="#linearGradient3332-412-419-652-471"
       gradientUnits="userSpaceOnUse"
       gradientTransform="matrix(0.9574517,0,0,0.9034707,1.0211784,4.30563)" />
    <linearGradient
       id="linearGradient3242-593-605-251-305">
      <stop
         id="stop2749"
         style="stop-color:#d78ec1;stop-opacity:1"
         offset="0" />
      <stop
         id="stop2751"
         style="stop-color:#c564be;stop-opacity:1"
         offset="0.26238" />
      <stop
         id="stop2753"
         style="stop-color:#9d3ea4;stop-opacity:1"
         offset="0.66093999" />
      <stop
         id="stop2755"
         style="stop-color:#5e2c73;stop-opacity:1"
         offset="1" />
    </linearGradient>
    <radialGradient
       cx="26.616697"
       cy="-2.0644982"
       r="23"
       fx="26.616697"
       fy="-2.0644982"
       id="radialGradient3966"
       xlink:href="#linearGradient3242-593-605-251-305"
       gradientUnits="userSpaceOnUse"
       gradientTransform="matrix(-1.8187668e-8,-1.0656573,1.3967139,0,35.965186,58.558833)" />
    <linearGradient
       id="linearGradient8265-821-176-38-919-66-249">
      <stop
         id="stop2687"
         style="stop-color:#ffffff;stop-opacity:1"
         offset="0" />
      <stop
         id="stop2689"
         style="stop-color:#ffffff;stop-opacity:0"
         offset="1" />
    </linearGradient>
    <linearGradient
       x1="16.626165"
       y1="15.298182"
       x2="20.054544"
       y2="24.627615"
       id="linearGradient2849"
       xlink:href="#linearGradient8265-821-176-38-919-66-249"
       gradientUnits="userSpaceOnUse"
       gradientTransform="matrix(0.9578231,0,0,1.0182827,1.0122454,1.922127)" />
    <linearGradient
       id="linearGradient3282">
      <stop
         id="stop3284"
         style="stop-color:#000000;stop-opacity:1"
         offset="0" />
      <stop
         id="stop3286"
         style="stop-color:#000000;stop-opacity:0"
         offset="1" />
    </linearGradient>
    <linearGradient
       x1="24.682861"
       y1="9.2416716"
       x2="24.682861"
       y2="13.523027"
       id="linearGradient3639"
       xlink:href="#linearGradient3282"
       gradientUnits="userSpaceOnUse"
       gradientTransform="matrix(0.9563112,0,0,0.4680085,1.0550418,9.674819)" />
    <linearGradient
       id="linearGradient3958">
      <stop
         id="stop3960"
         style="stop-color:#aeae94;stop-opacity:1"
         offset="0" />
      <stop
         id="stop3962"
         style="stop-color:#626337;stop-opacity:1"
         offset="1" />
    </linearGradient>
    <linearGradient
       x1="16.91585"
       y1="7.0006418"
       x2="16.91585"
       y2="14"
       id="linearGradient3964"
       xlink:href="#linearGradient3958"
       gradientUnits="userSpaceOnUse" />
    <linearGradient
       id="linearGradient2446-733-45">
      <stop
         id="stop3793"
         style="stop-color:#fdfdf8;stop-opacity:1"
         offset="0" />
      <stop
         id="stop3795"
         style="stop-color:#d6d3b4;stop-opacity:1"
         offset="1" />
    </linearGradient>
    <linearGradient
       x1="33.579403"
       y1="5.7086449"
       x2="33.579403"
       y2="16.323294"
       id="linearGradient3636-65"
       xlink:href="#linearGradient2446-733-45"
       gradientUnits="userSpaceOnUse"
       gradientTransform="matrix(0.8148434,0,0,0.6596233,-2.2594711,3.2339741)" />
    <linearGradient
       id="linearGradient2238">
      <stop
         id="stop2240"
         style="stop-color:#ffffff;stop-opacity:1"
         offset="0" />
      <stop
         id="stop2242"
         style="stop-color:#ffffff;stop-opacity:0"
         offset="1" />
    </linearGradient>
    <linearGradient
       x1="12.578789"
       y1="-7.8073711"
       x2="12.578789"
       y2="41.827358"
       id="linearGradient2852"
       xlink:href="#linearGradient2238"
       gradientUnits="userSpaceOnUse"
       gradientTransform="matrix(0.9546411,0,0,0.8965269,1.0874564,5.385244)" />
  </defs>
  <g
     id="layer1">
    <rect
       width="31.643764"
       height="6.0000005"
       x="8.1781178"
       y="41"
       id="rect2512"
       style="opacity:0.40206185;fill:url(#linearGradient2788);fill-opacity:1;fill-rule:nonzero;stroke:none;stroke-width:1;marker:none;visibility:visible;display:inline;overflow:visible" />
    <path
       d="M 39.821883,41.000206 C 39.821883,41.000206 39.821883,46.999875 39.821883,46.999875 C 43.196744,47.011165 47.980654,45.655654 47.980652,43.999654 C 47.980652,42.343655 44.214562,41.000206 39.821883,41.000206 z"
       id="path2514"
       style="opacity:0.40206185;fill:url(#radialGradient2785);fill-opacity:1;fill-rule:nonzero;stroke:none;stroke-width:1;marker:none;visibility:visible;display:inline;overflow:visible" />
    <path
       d="M 8.178118,41.000206 C 8.178118,41.000206 8.178118,46.999875 8.178118,46.999875 C 4.8032565,47.011165 0.01934732,45.655654 0.01934732,43.999654 C 0.01934732,42.343655 3.7854375,41.000206 8.178118,41.000206 z"
       id="path2516"
       style="opacity:0.40206185;fill:url(#radialGradient2782);fill-opacity:1;fill-rule:nonzero;stroke:none;stroke-width:1;marker:none;visibility:visible;display:inline;overflow:visible" />
    <rect
       width="44.997868"
       height="36.997868"
       rx="2.6659844"
       ry="2.6659844"
       x="1.5010662"
       y="7.5010657"
       id="rect2573"
       style="fill:url(#radialGradient3966);fill-opacity:1;fill-rule:evenodd;stroke:url(#linearGradient2857);stroke-width:1.00213289;stroke-linecap:round;stroke-linejoin:round;stroke-miterlimit:4;stroke-dasharray:none;stroke-dashoffset:0;stroke-opacity:1" />
    <path
       d="M 4.0952394,8.000002 C 2.9379234,8.000002 2.0000014,8.997128 2.0000014,10.227495 L 2.0000014,26.520018 C 2.0026554,26.657082 2.0591924,26.786698 2.1558864,26.877402 C 2.2525804,26.968106 2.3805914,27.011605 2.5088444,26.997338 L 45.610883,19.742074 C 45.8326,19.7049 45.996899,19.503355 46,19.264754 L 46,10.227495 C 46,8.997128 45.062077,8.000002 43.904761,8.000002 L 4.0952394,8.000002 z"
       id="path2603"
       style="opacity:0.2;fill:url(#linearGradient2849);fill-opacity:1;fill-rule:evenodd;stroke:none;stroke-width:1.00213289;stroke-linecap:round;stroke-linejoin:round;stroke-miterlimit:4;stroke-dasharray:none;stroke-dashoffset:0;stroke-opacity:1" />
    <rect
       width="44"
       height="2"
       rx="0"
       ry="0"
       x="2"
       y="14"
       id="rect1436"
       style="opacity:0.2;fill:url(#linearGradient3639);fill-opacity:1;fill-rule:evenodd;stroke:none;stroke-width:1.00000012;stroke-linecap:butt;stroke-linejoin:miter;marker:none;marker-start:none;marker-mid:none;marker-end:none;stroke-miterlimit:4;stroke-dasharray:none;stroke-dashoffset:0;stroke-opacity:1;visibility:visible;display:inline;overflow:visible" />
    <path
       d="M 4.5,7.500642 C 4.5,7.500642 43.836231,7.5092304 43.836231,7.5092304 C 45.401156,7.5092304 46.5,8.7704177 46.5,10.166011 C 46.5,10.166011 46.5,13.5 46.5,13.5 C 46.5,13.5 1.5000001,13.5 1.5000001,13.5 C 1.5000001,13.5 1.5,10.166011 1.5,10.166011 C 1.5,8.67849 2.7087852,7.500642 4.5,7.500642 z"
       id="rect2311"
       style="fill:url(#linearGradient3636-65);fill-opacity:1;fill-rule:evenodd;stroke:url(#linearGradient3964);stroke-width:1;stroke-linecap:butt;stroke-linejoin:miter;marker:none;marker-start:none;marker-mid:none;marker-end:none;stroke-miterlimit:4;stroke-dasharray:none;stroke-dashoffset:0;stroke-opacity:1;visibility:visible;display:inline;overflow:visible" />
    <rect
       width="42.996269"
       height="34.996269"
       rx="1.6959794"
       ry="1.6959794"
       x="2.5018673"
       y="8.5018673"
       id="rect2601"
       style="opacity:0.4;fill:none;fill-opacity:1;fill-rule:evenodd;stroke:url(#linearGradient2852);stroke-width:1.00373149;stroke-linecap:round;stroke-linejoin:round;stroke-miterlimit:4;stroke-dasharray:none;stroke-dashoffset:0;stroke-opacity:1" />
    <path
       d="M 5.4999605,17.49996 C 6.5502552,17.49996 7.9668675,17.49996 9.017163,17.49996 C 9.2014068,17.575465 10.241558,18.495295 10.500028,19.090894 C 10.500028,20.913821 10.500039,22.67711 10.500039,24.500039 C 8.9722308,24.500039 7.0277683,24.500039 5.4999605,24.500039 C 5.4999605,22.166679 5.4999605,19.833319 5.4999605,17.49996 z"
       id="path4160"
       style="fill:#f2f2f2;fill-opacity:1;stroke:#cccccc;stroke-width:0.9999215;stroke-linecap:butt;stroke-linejoin:round;stroke-miterlimit:4;stroke-dasharray:none;stroke-dashoffset:0;stroke-opacity:1;display:inline" />
    <path
       d="M 5.4999605,28.49996 C 6.5502552,28.49996 7.9668675,28.49996 9.017163,28.49996 C 9.2014068,28.575465 10.241558,29.495295 10.500028,30.090894 C 10.500028,31.913821 10.500039,33.67711 10.500039,35.500039 C 8.9722308,35.500039 7.0277683,35.500039 5.4999605,35.500039 C 5.4999605,33.166679 5.4999605,30.833319 5.4999605,28.49996 z"
       id="path4156"
       style="fill:#f2f2f2;fill-opacity:1;stroke:#cccccc;stroke-width:0.9999215;stroke-linecap:butt;stroke-linejoin:round;stroke-miterlimit:4;stroke-dasharray:none;stroke-dashoffset:0;stroke-opacity:1;display:inline" />
  </g>
</svg>

<?xml version="1.0" encoding="UTF-8" standalone="no"?>
<!-- Created with Inkscape (http://www.inkscape.org/) -->
<svg id="svg4158" xmlns="http://www.w3.org/2000/svg" height="48" width="48" version="1.0" xmlns:xlink="http://www.w3.org/1999/xlink">
 <defs id="defs4160">
  <linearGradient id="linearGradient2788" y2="609.51" gradientUnits="userSpaceOnUse" x2="302.86" gradientTransform="matrix(.065534 0 0 .024706 .31399 31.942)" y1="366.65" x1="302.86">
   <stop id="stop5050-5" style="stop-opacity:0" offset="0"/>
   <stop id="stop5056-9" offset=".5"/>
   <stop id="stop5052-6" style="stop-opacity:0" offset="1"/>
  </linearGradient>
  <radialGradient id="radialGradient2785" xlink:href="#linearGradient5060-6" gradientUnits="userSpaceOnUse" cy="486.65" cx="605.71" gradientTransform="matrix(.065534 0 0 .024706 .32688 31.942)" r="117.14"/>
  <linearGradient id="linearGradient5060-6">
   <stop id="stop5062-3" offset="0"/>
   <stop id="stop5064-1" style="stop-opacity:0" offset="1"/>
  </linearGradient>
  <radialGradient id="radialGradient2782" xlink:href="#linearGradient5060-6" gradientUnits="userSpaceOnUse" cy="486.65" cx="605.71" gradientTransform="matrix(-.065534 0 0 .024706 47.673 31.942)" r="117.14"/>
  <linearGradient id="linearGradient2857" y2="2.8765" gradientUnits="userSpaceOnUse" x2="10.014" gradientTransform="matrix(.95745 0 0 .90347 1.0212 4.3056)" y1="44.96" x1="10.014">
   <stop id="stop2759" style="stop-color:#650d5c" offset="0"/>
   <stop id="stop2761" style="stop-color:#ad53a5" offset="1"/>
  </linearGradient>
  <radialGradient id="radialGradient3966" gradientUnits="userSpaceOnUse" cy="-2.0645" cx="26.617" gradientTransform="matrix(-1.8188e-8 -1.0657 1.3967 0 35.965 58.559)" r="23">
   <stop id="stop2749" style="stop-color:#d78ec1" offset="0"/>
   <stop id="stop2751" style="stop-color:#c564be" offset=".26238"/>
   <stop id="stop2753" style="stop-color:#9d3ea4" offset=".66094"/>
   <stop id="stop2755" style="stop-color:#5e2c73" offset="1"/>
  </radialGradient>
  <linearGradient id="linearGradient2849" y2="24.628" gradientUnits="userSpaceOnUse" x2="20.055" gradientTransform="matrix(.95782 0 0 1.0183 1.0122 1.9221)" y1="15.298" x1="16.626">
   <stop id="stop2687" style="stop-color:#fff" offset="0"/>
   <stop id="stop2689" style="stop-color:#fff;stop-opacity:0" offset="1"/>
  </linearGradient>
  <linearGradient id="linearGradient3639" y2="13.523" gradientUnits="userSpaceOnUse" x2="24.683" gradientTransform="matrix(.95631 0 0 .46801 1.055 9.6748)" y1="9.2417" x1="24.683">
   <stop id="stop3284" offset="0"/>
   <stop id="stop3286" style="stop-opacity:0" offset="1"/>
  </linearGradient>
  <linearGradient id="linearGradient3964" y2="14" gradientUnits="userSpaceOnUse" x2="16.916" y1="7.0006" x1="16.916">
   <stop id="stop3960" style="stop-color:#aeae94" offset="0"/>
   <stop id="stop3962" style="stop-color:#626337" offset="1"/>
  </linearGradient>
  <linearGradient id="linearGradient3636-65" y2="16.323" gradientUnits="userSpaceOnUse" x2="33.579" gradientTransform="matrix(.81484 0 0 .65962 -2.2595 3.234)" y1="5.7086" x1="33.579">
   <stop id="stop3793" style="stop-color:#fdfdf8" offset="0"/>
   <stop id="stop3795" style="stop-color:#d6d3b4" offset="1"/>
  </linearGradient>
  <linearGradient id="linearGradient2852" y2="41.827" gradientUnits="userSpaceOnUse" x2="12.579" gradientTransform="matrix(.95464 0 0 .89653 1.0875 5.3852)" y1="-7.8074" x1="12.579">
   <stop id="stop2240" style="stop-color:#fff" offset="0"/>
   <stop id="stop2242" style="stop-color:#fff;stop-opacity:0" offset="1"/>
  </linearGradient>
 </defs>
 <g id="layer1">
  <rect id="rect2512" style="opacity:.40206;fill:url(#linearGradient2788)" height="6" width="31.644" y="41" x="8.1781"/>
  <path id="path2514" style="opacity:.40206;fill:url(#radialGradient2785)" d="m39.822 41v6c3.375 0.011 8.159-1.344 8.159-3s-3.766-3-8.159-3z"/>
  <path id="path2516" style="opacity:.40206;fill:url(#radialGradient2782)" d="m8.1781 41v6c-3.3748 0.011-8.1588-1.344-8.1588-3 0.000047-1.656 3.7661-3 8.1588-3z"/>
  <rect id="rect2573" style="stroke-linejoin:round;fill-rule:evenodd;stroke:url(#linearGradient2857);stroke-linecap:round;stroke-width:1.0021;fill:url(#radialGradient3966)" rx="2.666" ry="2.666" height="36.998" width="44.998" y="7.5011" x="1.5011"/>
  <path id="path2603" style="opacity:.2;fill:url(#linearGradient2849);fill-rule:evenodd" d="m4.0952 8c-1.1573 0-2.0952 0.9971-2.0952 2.227v16.293c0.0027 0.137 0.0592 0.267 0.1559 0.357 0.0967 0.091 0.2247 0.135 0.3529 0.12l43.102-7.255c0.222-0.037 0.386-0.239 0.389-0.477v-9.038c0-1.2299-0.938-2.227-2.095-2.227h-39.81z"/>
  <rect id="rect1436" style="opacity:.2;fill-rule:evenodd;fill:url(#linearGradient3639)" rx="0" ry="0" height="2" width="44" y="14" x="2"/>
  <path id="rect2311" style="fill-rule:evenodd;stroke:url(#linearGradient3964);fill:url(#linearGradient3636-65)" d="m4.5 7.5006l39.336 0.0086c1.565 0 2.664 1.2612 2.664 2.6568v3.334h-45v-3.334c0-1.4875 1.2088-2.6654 3-2.6654z"/>
  <rect id="rect2601" style="opacity:.4;stroke-linejoin:round;stroke:url(#linearGradient2852);stroke-linecap:round;stroke-width:1.0037;fill:none" rx="1.696" ry="1.696" height="34.996" width="42.996" y="8.5019" x="2.5019"/>
  <path id="path4160" style="stroke-linejoin:round;stroke:#ccc;stroke-width:.99992;fill:#f2f2f2" d="m5.5 17.5h3.5172c0.1842 0.075 1.2248 0.995 1.4828 1.591v5.409h-5v-7z"/>
  <path id="path4156" style="stroke-linejoin:round;stroke:#ccc;stroke-width:.99992;fill:#f2f2f2" d="m5.5 28.5h3.5172c0.1842 0.075 1.2248 0.995 1.4828 1.591v5.409h-5v-7z"/>
 </g>
</svg>
